symbols/web/nightlight/materialsymbolsoutlined/nightlight_wght700gradN25fill1_40px.svg

<svg xmlns="http://www.w3.org/2000/svg" height="40" width="40"><path d="M23.667 37.542q-3.792 0-7.125-1.396-3.334-1.396-5.875-3.813-2.542-2.416-4-5.645-1.459-3.23-1.459-6.896 0-3.667 1.459-6.917 1.458-3.25 4-5.667 2.541-2.416 5.875-3.833 3.333-1.417 7.125-1.417 2.166 0 4.645.688 2.48.687 4.813 2.146-4.167 2.833-6.771 6.708t-2.604 8.292q0 4.375 2.604 8.25t6.771 6.666q-2.333 1.459-4.813 2.146-2.479.688-4.645.688Z"/></svg>

<svg xmlns="http://www.w3.org/2000/svg" height="40" width="40"><path d="M23.667 37.542Q19.875 37.542 16.542 36.146Q13.208 34.75 10.667 32.333Q8.125 29.917 6.667 26.688Q5.208 23.458 5.208 19.792Q5.208 16.125 6.667 12.875Q8.125 9.625 10.667 7.208Q13.208 4.792 16.542 3.375Q19.875 1.958 23.667 1.958Q25.833 1.958 28.312 2.646Q30.792 3.333 33.125 4.792Q28.958 7.625 26.354 11.5Q23.75 15.375 23.75 19.792Q23.75 24.167 26.354 28.042Q28.958 31.917 33.125 34.708Q30.792 36.167 28.312 36.854Q25.833 37.542 23.667 37.542Z"/></svg>
